X: 1
T: La Cardeuse
M: 4/4
L: 1/8
R: reel
K: Gmaj
|: B2 BB B2 GB | dedB cdcB | AGFG A2 AA | dedc BAGA |
B2 BB B2 GB | dedB cdcB | AGFG A2 AA | d2 F2 G4  :|
|: dcBc d2 g2 | d2 g2 d2 g2 | D2 AB cBAB |c2 a2 c2 a2 |A2 A2 D2 Bc |
dcBc d2 g2 | d2 g2 d2 g2 | D2 AB cBAB | c2 a2 g2 f2 | g2 g2 g4  :|
|: d2 ef g2 fe | d2 ef g2 B2 | c2 B2 AGAc | B2 G2 G2 G2 |
 d2 ef g2 fe | d2 ef g2 B2 | c2 B2 AGAc | B2 G2 G2 G2  ||
|: BcBA GGBG | FFAF GFGA | BcBA G2 g2 | fdef g2 B2 |
BcBA GGBG | FFAF GFGA | BcBA G2 g2 | fdef g2 B2 ||
|: DEGA B2 AG | A2 B2 c2 c2 | Bcdc B2 AB | cBAF G2 E2 |
DEGA B2 AG | A2 B2 c2 c2 | Bcdc B2 AB | cBAF G2 G2  ||
